Front/img/common/underline/underline-2.svg

<svg width="278" height="8" viewBox="0 0 278 8" fill="none" xmlns="http://www.w3.org/2000/svg">
<path d="M276.646 4.39021C270.862 4.88246 265.632 5.31318 259.787 5.62084C248.588 6.23616 237.266 6.72841 225.944 6.97454C222.437 7.03607 218.868 7.03607 215.299 7.03607C206.193 7.03607 196.901 6.85147 188.471 6.23616C182.626 5.80543 181.518 5.7439 175.857 5.25165C169.212 4.69787 161.028 3.83642 154.137 3.59029C149.768 3.46723 147.307 3.34417 143.246 3.34417H141.215C132.17 3.4057 121.771 4.02102 112.418 4.5748C102.573 5.12859 92.7897 5.68237 82.9447 5.68237C79.0682 5.68237 75.1917 5.62084 71.3152 5.37471C67.7464 5.06706 65.039 4.94399 61.224 4.39021C56.9783 3.77489 51.9327 2.54426 47.6255 1.49822C45.5334 1.0675 43.9951 0.698306 41.78 0.45218C40.2417 0.267584 38.6419 0.206055 37.0421 0.206055C34.2731 0.206055 31.4427 0.452181 28.6738 0.882903C25.7202 1.37516 22.0283 2.052 19.3209 2.60579C16.9212 3.09804 15.9982 3.34417 13.7216 3.77489C13.1062 3.89795 12.1833 4.08255 11.3218 4.20561C9.722 4.45174 8.06065 4.69787 6.39929 4.69787C5.72244 4.69787 5.0456 4.69786 4.36875 4.5748C3.63037 4.32867 3.26118 3.83642 2.89199 3.22111C2.39973 2.48272 1.78442 2.11353 1.23063 2.11353C0.553785 2.11353 0 2.66732 0 3.65183C0 3.83642 -1.01877e-07 4.02102 0.0615317 4.20561C0.492253 4.82093 0.922974 5.43624 1.59982 5.9285C1.78442 6.11309 2.03054 6.23616 2.27667 6.35922C2.58433 6.48228 2.89199 6.60535 3.19965 6.66688C4.06109 6.85147 4.92253 6.913 5.78398 6.913C6.70695 6.85147 7.56839 6.85147 8.49137 6.72841C9.59894 6.54381 11.568 6.17462 12.4909 5.9285C16.1213 5.12859 19.8747 4.14408 23.259 3.46723C26.0279 2.91345 27.0124 2.72885 29.7813 2.29813C31.8119 1.99047 34.1501 1.86741 36.4267 1.86741C37.9035 1.86741 39.4418 1.92894 40.7955 2.052C42.8876 2.29813 44.4874 2.60579 46.4564 2.97498C47.3794 3.15957 48.4254 3.4057 49.3484 3.65183C50.3329 3.83642 51.4405 4.14408 52.425 4.32868C54.8247 4.82093 58.2705 5.37471 60.3625 5.62084C64.116 6.05156 67.131 6.17462 70.6999 6.42075C73.5303 6.48228 76.2992 6.54381 79.0682 6.54381C82.6985 6.54381 86.2674 6.48228 89.9593 6.29769C97.4046 5.99003 105.158 5.43625 112.664 5.00552C121.587 4.51327 131.247 4.08255 139.861 4.08255H141.646C146.753 4.14408 148.845 4.32868 153.521 4.51327C155.183 4.63633 157.152 4.7594 158.936 4.88246C160.659 5.00552 162.444 5.19012 164.166 5.31318C171.919 5.9285 179.857 6.54381 187.61 7.03607C196.348 7.65138 205.27 7.83598 214.069 7.83598C218.191 7.83598 222.314 7.77445 226.375 7.71292C237.881 7.46679 249.08 7.15913 260.402 6.72841C266.309 6.48228 271.601 6.11309 277.446 5.68237C277.877 5.43624 278 5.12859 278 4.88246C278 4.5748 277.631 4.32868 277.139 4.32868C277.015 4.32868 276.831 4.32867 276.646 4.39021Z" fill="#FE3945"/>
</svg>

<svg xmlns="http://www.w3.org/2000/svg" fill="none" viewBox="0 0 278 8"><path fill="#FE3945" d="M276.646 4.39c-5.784.492-11.014.923-16.859 1.23-11.199.616-22.521 1.108-33.843 1.355-3.507.061-7.076.061-10.645.061-9.106 0-18.398-.185-26.828-.8-5.845-.43-6.953-.492-12.614-.984-6.645-.554-14.829-1.416-21.72-1.662-4.369-.123-6.83-.246-10.891-.246h-2.031c-9.045.062-19.444.677-28.797 1.23-9.845.555-19.628 1.108-29.473 1.108-3.877 0-7.753-.061-11.63-.307-3.569-.308-6.276-.431-10.091-.985-4.246-.615-9.291-1.846-13.598-2.892-2.093-.43-3.63-.8-5.846-1.046-1.538-.184-3.138-.246-4.738-.246-2.769 0-5.6.246-8.368.677-2.954.492-6.646 1.169-9.353 1.723-2.4.492-3.323.738-5.6 1.169-.615.123-1.538.308-2.4.43-1.599.247-3.26.493-4.922.493-.677 0-1.353 0-2.03-.123-.739-.246-1.108-.739-1.477-1.354-.492-.738-1.108-1.107-1.661-1.107C.554 2.114 0 2.667 0 3.652c0 .184 0 .369.062.554.43.615.861 1.23 1.538 1.722.184.185.43.308.677.431.307.123.615.246.923.308.861.184 1.723.246 2.584.246.923-.062 1.784-.062 2.707-.185 1.108-.184 3.077-.553 4-.8 3.63-.8 7.384-1.784 10.768-2.46 2.769-.555 3.753-.74 6.522-1.17 2.03-.308 4.37-.43 6.646-.43 1.477 0 3.015.06 4.368.184 2.093.246 3.692.554 5.661.923.923.185 1.97.43 2.892.677.985.184 2.093.492 3.077.677 2.4.492 5.846 1.046 7.938 1.292 3.753.43 6.768.554 10.337.8 2.83.061 5.6.123 8.368.123 3.63 0 7.2-.062 10.891-.246 7.446-.308 15.199-.862 22.705-1.292 8.923-.493 18.583-.923 27.197-.923h1.785c5.107.061 7.199.246 11.875.43 1.662.123 3.631.246 5.415.37 1.723.123 3.508.307 5.23.43 7.753.615 15.691 1.23 23.444 1.723 8.738.615 17.66.8 26.459.8 4.122 0 8.245-.062 12.306-.123 11.506-.246 22.705-.554 34.027-.985 5.907-.246 11.199-.615 17.044-1.046.431-.246.554-.553.554-.8 0-.307-.369-.553-.861-.553-.124 0-.308 0-.493.061z"/></svg>
